src/img/scroll.svg

<?xml version="1.0" encoding="utf-8"?><!-- Uploaded to: SVG Repo, www.svgrepo.com, Generator: SVG Repo Mixer Tools -->
<svg fill="#ffffff" width="800px" height="800px" viewBox="0 0 24 24" xmlns="http://www.w3.org/2000/svg">
  <path d="M7,9.29289322 L8.14644661,8.14644661 C8.34170876,7.95118446 8.65829124,7.95118446 8.85355339,8.14644661 C9.04881554,8.34170876 9.04881554,8.65829124 8.85355339,8.85355339 L6.85355339,10.8535534 C6.65829124,11.0488155 6.34170876,11.0488155 6.14644661,10.8535534 L4.14644661,8.85355339 C3.95118446,8.65829124 3.95118446,8.34170876 4.14644661,8.14644661 C4.34170876,7.95118446 4.65829124,7.95118446 4.85355339,8.14644661 L6,9.29289322 L6,3.70710678 L4.85355339,4.85355339 C4.65829124,5.04881554 4.34170876,5.04881554 4.14644661,4.85355339 C3.95118446,4.65829124 3.95118446,4.34170876 4.14644661,4.14644661 L6.14644661,2.14644661 C6.34170876,1.95118446 6.65829124,1.95118446 6.85355339,2.14644661 L8.85355339,4.14644661 C9.04881554,4.34170876 9.04881554,4.65829124 8.85355339,4.85355339 C8.65829124,5.04881554 8.34170876,5.04881554 8.14644661,4.85355339 L7,3.70710678 L7,9.29289322 Z M14,9.5 L14,12.0474376 C14,12.3783481 13.8839855,12.698786 13.6721417,12.9529985 C13.1720143,13.5531514 12.2800608,13.6342381 11.6799078,13.1341106 L10.7560738,12.3642489 C10.4736449,12.1288916 10.11764,12 9.75,12 C9.48363526,12 9.24082605,12.1526146 9.12532205,12.3926334 L9.08962348,12.4668155 C8.95447865,12.7476481 8.99541029,13.0814869 9.19439734,13.321352 L13.607865,18.6414804 C14.3217788,19.502054 15.3818498,20 16.5,20 C18.9852814,20 21,17.9852814 21,15.5 L21,11.5 C21,11.2238576 20.7761424,11 20.5,11 C20.2238576,11 20,11.2238576 20,11.5 L20,12.5 C20,12.7761424 19.7761424,13 19.5,13 C19.2238576,13 19,12.7761424 19,12.5 L19,10.5 C19,10.2238576 18.7761424,10 18.5,10 C18.2238576,10 18,10.2238576 18,10.5 L18,12.5 C18,12.7761424 17.7761424,13 17.5,13 C17.2238576,13 17,12.7761424 17,12.5 L17,9.5 C17,9.22385763 16.7761424,9 16.5,9 C16.2238576,9 16,9.22385763 16,9.5 L16,12.5 C16,12.7761424 15.7761424,13 15.5,13 C15.2238576,13 15,12.7761424 15,12.5 L15,5.5 C15,5.22385763 14.7761424,5 14.5,5 C14.2238576,5 14,5.22385763 14,5.5 L14,9.5 Z M13,9.49999981 L13,5.5 C13,4.67157288 13.6715729,4 14.5,4 C15.3284271,4 16,4.67157288 16,5.5 L16,8.08535285 C16.1563895,8.03007711 16.3246823,8 16.5,8 C17.191734,8 17.7741062,8.46823386 17.9474595,9.10504462 C18.1184541,9.03725677 18.3048761,9 18.5,9 C19.191734,9 19.7741062,9.46823386 19.9474595,10.1050446 C20.1184541,10.0372568 20.3048761,10 20.5,10 C21.3284271,10 22,10.6715729 22,11.5 L22,15.5 C22,18.5375661 19.5375661,21 16.5,21 C15.0842933,21 13.7421216,20.3695431 12.8382246,19.279958 L8.42475695,13.9598296 C7.97611908,13.4190278 7.88383427,12.6663521 8.18853292,12.0331845 L8.2242315,11.9590024 C8.50634865,11.3727595 9.09940726,11 9.75,11 C10.3515765,11 10.9341143,11.2109078 11.3962582,11.5960277 L12.3200922,12.3658894 C12.4959683,12.5124527 12.7573571,12.4886901 12.9039205,12.3128141 C12.9660017,12.2383166 13,12.1444116 13,12.0474376 L13,9.5 Z"/>
</svg>

<svg fill="#ffffff" viewBox="0 0 24 24" xmlns="http://www.w3.org/2000/svg"><path d="m7 9.3 1.15-1.15a.5.5 0 1 1 .7.7l-2 2a.5.5 0 0 1-.7 0l-2-2a.5.5 0 1 1 .7-.7L6 9.29V3.71L4.85 4.85a.5.5 0 1 1-.7-.7l2-2c.2-.2.5-.2.7 0l2 2a.5.5 0 1 1-.7.7L7 3.71zm7 .2v2.55a1.41 1.41 0 0 1-2.32 1.08l-.92-.77A1.6 1.6 0 0 0 9.75 12a.7.7 0 0 0-.62.4l-.04.07a.8.8 0 0 0 .1.85l4.42 5.32A3.8 3.8 0 0 0 16.5 20a4.5 4.5 0 0 0 4.5-4.5v-4a.5.5 0 1 0-1 0v1a.5.5 0 1 1-1 0v-2a.5.5 0 1 0-1 0v2a.5.5 0 1 1-1 0v-3a.5.5 0 1 0-1 0v3a.5.5 0 1 1-1 0v-7a.5.5 0 1 0-1 0zm-1 0v-4a1.5 1.5 0 0 1 3 0v2.59a1.5 1.5 0 0 1 1.95 1.02 1.5 1.5 0 0 1 2 1A1.5 1.5 0 0 1 22 11.5v4a5.5 5.5 0 0 1-5.5 5.5 4.8 4.8 0 0 1-3.66-1.72l-4.42-5.32a1.8 1.8 0 0 1-.23-1.93l.03-.07A1.7 1.7 0 0 1 9.75 11c.6 0 1.18.21 1.65.6l.92.77a.41.41 0 0 0 .68-.32z"/></svg>
